X: 135
T:Rush() Waltz. JaW.135
M:3/8
L:1/8
Q:1/4=30
S:James Winder Ms, Lancashire, 1835-41
R:Waltz
O:England
A:Wyresdale,Lancashire
H:1/8
Z:vmp.Chris Partington, Aug 2004
K:G
GB/d/|gg/f/g|efg|d2B/d/|c2A/c/|B2G/B/|AGF|G2:|!
|:.A.B.c|Bcd|ece|d2B/d/|cc A/c/|BB G/B/|AGF|G3:|]
